meganmlee/Multi-Agent-Optimal-Control/solutions/left_push_up_left_push_down.csv
time_from_start,gpfour0_arm_joint_1,gpfour0_arm_joint_2,gpfour0_arm_joint_3,gpfour0_arm_joint_4,gpfour0_arm_joint_5,gpfour0_arm_joint_6,gpfour0_arm_fts_tool,gpfour1_arm_joint_1,gpfour1_arm_joint_2,gpfour1_arm_joint_3,gpfour1_arm_joint_4,gpfour1_arm_joint_5,gpfour1_arm_joint_6,gpfour1_arm_fts_tool,
0,0,0.436332,0,0,0.418879,0,0,0,-0.401426,0,0,-0.959931,0,0
0.194533,0.0872665,0.436332,0,0,0.418879,0,0,0,-0.401426,0,0,-0.785398,0,0
0.409066,0.174533,0.436332,0,0,0.418879,0,0,0,-0.401426,0,0,-0.610865,0,0
0.663599,0.174533,0.436332,0,0,0.244346,0,0,0,-0.226893,0,0,-0.610865,0,0
0.918132,0.261799,0.436332,0,0,0.244346,0,0,0,-0.226893,0,0,-0.436332,0,0
1.17266,0.261799,0.610865,0,0,0.244346,0,0,0,-0.0523599,0,0,-0.436332,0,0
1.4072,0.349066,0.610865,0,0,0.244346,0,0,0,-0.0523599,0,0,-0.261799,0,0
1.63173,0.436332,0.610865,0,0,0.244346,0,0,0,0.122173,0,0,-0.261799,0,0
1.87626,0.610865,0.610865,0,0,0.244346,0,0,0,0.122173,0,0,-0.0872665,0,0
2.1308,0.610865,0.610865,0,0,0.0698132,0,0,0,0.296706,0,0,-0.0872665,0,0
2.38533,0.785398,0.610865,0,0,0.0698132,0,0,0,0.296706,0,0,0.0872665,0,0
2.64986,0.785398,0.785398,0,0,0.0698132,0,0,0,0.471239,0,0,0.0872665,0,0
2.9144,0.855211,0.802851,0,0,0,0,0,0,0.471239,0,0,0.261799,0,0
3.14893,0.855211,0.802851,0,0,0,0,0,0,0.645772,0,0,0.261799,0,0
3.36346,0.855211,0.802851,0,0,0,0,0,0,0.645772,0,0,0.436332,0,0
3.57799,0.855211,0.802851,0,0,0,0,0,0,0.820305,0,0,0.436332,0,0
3.79253,0.855211,0.802851,0,0,0,0,0,0,0.820305,0,0,0.610865,0,0
3.89979,0.855211,0.802851,0,0,0,0,0,-0.0872665,0.820305,0,0,0.610865,0,0
3.9897,0.855211,0.802851,0,0,0,0,0,-0.174533,0.820305,0,0,0.610865,0,0
4.07697,0.855211,0.802851,0,0,0,0,0,-0.261799,0.820305,0,0,0.610865,0,0
4.2715,0.855211,0.802851,0,0,0,0,0,-0.436332,0.820305,0,0,0.610865,0,0
4.48604,0.855211,0.802851,0,0,0,0,0,-0.436332,0.994838,0,0,0.610865,0,0
4.70057,0.855211,0.802851,0,0,0,0,0,-0.436332,0.994838,0,0,0.785398,0,0
4.9251,0.855211,0.802851,0,0,0,0,0,-0.610865,0.994838,0,0,0.785398,0,0
5.14218,0.855211,0.802851,0,0,0,0,0,-0.715585,1.15192,0,0,0.907571,0,0
