meganmlee/Multi-Agent-Optimal-Control/solutions/left_push_up_random6.csv
time_from_start,gpfour0_arm_joint_1,gpfour0_arm_joint_2,gpfour0_arm_joint_3,gpfour0_arm_joint_4,gpfour0_arm_joint_5,gpfour0_arm_joint_6,gpfour0_arm_fts_tool,gpfour1_arm_joint_1,gpfour1_arm_joint_2,gpfour1_arm_joint_3,gpfour1_arm_joint_4,gpfour1_arm_joint_5,gpfour1_arm_joint_6,gpfour1_arm_fts_tool,
0,0,0.436332,0,0,0.418879,0,0,0,-0.401426,0,0,-0.959931,0,0
0.194533,0,0.436332,0,0,0.418879,0.174533,0,0,-0.401426,0,-0.174533,-0.959931,0,0
0.369066,0,0.436332,0,0,0.418879,0.349066,0,0,-0.401426,0,-0.349066,-0.959931,0,0
0.543599,0,0.436332,0,0,0.418879,0.523599,0,0,-0.401426,0,-0.523599,-0.959931,0,0
0.758132,0,0.436332,0,0,0.418879,0.698132,0,0,-0.401426,0,-0.698132,-0.959931,0,0
1.01266,0,0.436332,0,0.174533,0.418879,0.698132,0,0,-0.401426,0,-0.698132,-0.959931,0.174533,0
1.2672,0,0.436332,0,0.174533,0.418879,0.872665,0,0,-0.401426,0,-0.872665,-0.959931,0.174533,0
1.52173,0,0.436332,0,0.349066,0.418879,0.872665,0,0,-0.226893,0,-0.872665,-0.959931,0.174533,0
1.77626,0,0.436332,0,0.349066,0.418879,1.0472,0,0,-0.226893,0,-0.872665,-0.959931,0.349066,0
2.0308,0,0.436332,0,0.523599,0.418879,1.0472,0,0,-0.226893,0,-1.0472,-0.959931,0.349066,0
2.28533,0,0.436332,0,0.523599,0.418879,1.22173,0,0,-0.0523599,0,-1.0472,-0.959931,0.349066,0
2.53986,0,0.436332,0,0.698132,0.418879,1.22173,0,0,-0.0523599,0,-1.0472,-0.959931,0.523599,0
2.7944,0,0.436332,0,0.698132,0.418879,1.39626,0,0,-0.0523599,0,-1.22173,-0.959931,0.523599,0
3.04893,0,0.436332,0,0.872665,0.418879,1.39626,0,-0.0872665,-0.0523599,0,-1.22173,-0.959931,0.523599,0
3.30346,0,0.436332,0,0.872665,0.418879,1.5708,0,-0.0872665,0.122173,0,-1.22173,-0.959931,0.523599,0
3.55799,0,0.436332,0,1.0472,0.418879,1.5708,0,-0.0872665,0.122173,0,-1.22173,-1.13446,0.523599,0
3.81253,0,0.436332,0,1.0472,0.418879,1.74533,0,-0.174533,0.122173,0,-1.22173,-1.13446,0.523599,0
4.06706,0,0.436332,0,1.0472,0.244346,1.74533,0,-0.174533,0.122173,0,-1.22173,-1.13446,0.698132,0
4.32159,0,0.436332,0,1.22173,0.244346,1.74533,0,-0.174533,0.122173,0,-1.39626,-1.13446,0.698132,0
4.56613,0,0.436332,0,1.22173,0.244346,1.91986,0,-0.261799,0.122173,0,-1.39626,-1.13446,0.698132,0
4.71339,0.0872665,0.436332,0,1.22173,0.244346,1.91986,0,-0.349066,0.122173,0,-1.39626,-1.13446,0.698132,0
4.94792,0.0872665,0.436332,0,1.22173,0.0698132,1.91986,0,-0.436332,0.122173,0,-1.39626,-1.13446,0.698132,0
5.07519,0.174533,0.436332,0,1.22173,0.0698132,1.91986,0,-0.523599,0.122173,0,-1.39626,-1.13446,0.698132,0
5.30384,0.261799,0.436332,0,1.22173,0.0698132,1.91986,0,-0.698132,0.122173,0,-1.39626,-1.13446,0.698132,0
5.55837,0.261799,0.436332,0,1.39626,0.0698132,1.91986,0,-0.698132,0.122173,0,-1.39626,-1.309,0.698132,0
5.8129,0.261799,0.436332,0,1.39626,0.0698132,2.0944,0,-0.872665,0.122173,0,-1.39626,-1.309,0.698132,0
6.08743,0.349066,0.436332,0,1.39626,0.0698132,2.0944,0,-0.872665,0.296706,0,-1.39626,-1.309,0.698132,0
6.46433,0.349066,0.261799,0,1.39626,0.0698132,2.0944,0,-0.977384,0.471239,0.20944,-1.62316,-1.41372,0.925025,0
6.71886,0.523599,0.261799,0,1.39626,0.0698132,2.0944,0,-0.977384,0.471239,0.20944,-1.62316,-1.41372,0.925025,0
6.91339,0.698132,0.261799,0,1.39626,0.0698132,2.0944,0,-0.977384,0.471239,0.20944,-1.62316,-1.41372,0.925025,0
7.12793,0.698132,0.261799,0,1.39626,-0.10472,2.0944,0,-0.977384,0.471239,0.20944,-1.62316,-1.41372,0.925025,0
7.34246,0.698132,0.261799,0.174533,1.39626,-0.10472,2.0944,0,-0.977384,0.471239,0.20944,-1.62316,-1.41372,0.925025,0
7.55699,0.698132,0.261799,0.174533,1.5708,-0.10472,2.0944,0,-0.977384,0.471239,0.20944,-1.62316,-1.41372,0.925025,0
7.79152,0.698132,0.0872665,0.174533,1.5708,-0.10472,2.0944,0,-0.977384,0.471239,0.20944,-1.62316,-1.41372,0.925025,0
8.05606,0.802851,0.122173,0.20944,1.58825,-0.20944,2.26893,0,-0.977384,0.471239,0.20944,-1.62316,-1.41372,0.925025,0
