meganmlee/Multi-Agent-Optimal-Control/solutions/random4_right_push.csv
time_from_start,gpfour0_arm_joint_1,gpfour0_arm_joint_2,gpfour0_arm_joint_3,gpfour0_arm_joint_4,gpfour0_arm_joint_5,gpfour0_arm_joint_6,gpfour0_arm_fts_tool,gpfour1_arm_joint_1,gpfour1_arm_joint_2,gpfour1_arm_joint_3,gpfour1_arm_joint_4,gpfour1_arm_joint_5,gpfour1_arm_joint_6,gpfour1_arm_fts_tool,
0,0.174533,0.279253,0.0349066,0.767945,-1.20428,-0.890118,0,0.10472,0.0872665,-0.0872665,-1.62316,-1.32645,0,0
0.369066,0.174533,0.279253,0.0349066,0.767945,-1.20428,-0.541052,0,0.10472,0.0872665,-0.0872665,-1.62316,-1.15192,0,0
0.748132,0.174533,0.279253,0.0349066,0.767945,-1.20428,-0.191986,0,0.10472,0.0872665,-0.0872665,-1.62316,-0.977384,0,0
0.952665,0.174533,0.279253,0.0349066,0.593412,-1.20428,-0.191986,0,0.10472,0.0872665,-0.0872665,-1.62316,-0.802851,0,0
1.1272,0.174533,0.279253,0.0349066,0.418879,-1.20428,-0.191986,0,0.10472,0.0872665,-0.0872665,-1.62316,-0.628319,0,0
1.30173,0.174533,0.279253,0.0349066,0.244346,-1.20428,-0.191986,0,0.10472,0.0872665,-0.0872665,-1.62316,-0.453786,0,0
1.51626,0.174533,0.279253,0.0349066,0.0698132,-1.20428,-0.191986,0,0.10472,0.0872665,-0.0872665,-1.62316,-0.279253,0,0
1.8108,0.174533,0.453786,0.0349066,0.0698132,-1.20428,-0.191986,0,0.10472,0.0872665,-0.0872665,-1.44862,-0.279253,0,0
2.15278,0,0.453786,-0.0523599,0,-1.02974,0,0,0.10472,0.0872665,-0.0872665,-1.44862,-0.10472,0,0
2.41732,0,0.453786,-0.0523599,0,-1.02974,0,0,0.10472,0.0872665,-0.0872665,-1.27409,-0.10472,0,0
2.63185,0,0.453786,-0.0523599,0,-1.02974,0,0,0.10472,0.0872665,-0.0872665,-1.27409,0.0698132,0,0
2.84638,0,0.453786,-0.0523599,0,-1.02974,0,0,0.10472,0.0872665,-0.0872665,-1.09956,0.0698132,0,0
3.06091,0,0.453786,-0.0523599,0,-1.02974,0,0,0.10472,0.0872665,-0.0872665,-1.09956,0.244346,0,0
3.27545,0,0.453786,-0.0523599,0,-1.02974,0,0,0.10472,0.0872665,-0.0872665,-0.925025,0.244346,0,0
3.48998,0,0.453786,-0.0523599,0,-1.02974,0,0,0.10472,0.0872665,-0.0872665,-0.925025,0.418879,0,0
3.70451,0,0.453786,-0.0523599,0,-1.02974,0,0,0.10472,0.0872665,-0.0872665,-0.750492,0.418879,0,0
3.91905,0,0.453786,-0.0523599,0,-1.02974,0,0,0.10472,0.0872665,-0.0872665,-0.750492,0.593412,0,0
4.13358,0,0.453786,-0.0523599,0,-1.02974,0,0,0.10472,0.0872665,-0.0872665,-0.575959,0.593412,0,0
4.34811,0,0.453786,-0.0523599,0,-1.02974,0,0,0.10472,0.0872665,-0.0872665,-0.575959,0.767945,0,0
4.56264,0,0.453786,-0.0523599,0,-1.02974,0,0,0.10472,0.261799,-0.0872665,-0.575959,0.767945,0,0
4.77718,0,0.453786,-0.0523599,0,-1.02974,0,0,0.10472,0.261799,-0.0872665,-0.401426,0.767945,0,0
4.99171,0,0.453786,-0.0523599,0,-1.02974,0,0,0.10472,0.261799,-0.0872665,-0.401426,0.942478,0,0
5.20624,0,0.453786,-0.0523599,0,-1.02974,0,0,0.10472,0.261799,-0.0872665,-0.226893,0.942478,0,0
5.31351,0,0.453786,-0.0523599,0,-1.02974,0,0,0.191986,0.261799,-0.0872665,-0.226893,0.942478,0,0
5.42342,0,0.453786,-0.0523599,0,-1.02974,0,0,0.279253,0.261799,-0.0872665,-0.226893,0.942478,0,0
5.61795,0,0.453786,-0.0523599,0,-1.02974,0,0,0.279253,0.436332,-0.0872665,-0.226893,0.942478,0,0
5.79249,0,0.453786,-0.0523599,0,-1.02974,0,0,0.279253,0.610865,-0.0872665,-0.226893,0.942478,0,0
5.96702,0,0.453786,-0.0523599,0,-1.02974,0,0,0.279253,0.785398,-0.0872665,-0.226893,0.942478,0,0
6.16155,0,0.453786,-0.0523599,0,-1.02974,0,0,0.279253,0.959931,-0.0872665,-0.226893,0.942478,0,0
6.37609,0,0.453786,-0.0523599,0,-1.02974,0,0,0.279253,0.959931,-0.0872665,-0.226893,1.11701,0,0
6.59062,0,0.453786,-0.0523599,0,-1.02974,0,0,0.279253,0.959931,-0.261799,-0.226893,1.11701,0,0
6.82515,0,0.453786,-0.0523599,0,-1.02974,0,0,0.10472,0.959931,-0.261799,-0.226893,1.11701,0,0
7.02987,0,0.453786,-0.0523599,0,-1.02974,0,0,0.10472,1.01229,-0.15708,-0.191986,1.09956,-0.10472,0
