meganmlee/Multi-Agent-Optimal-Control/solutions/random5_right_push.csv
time_from_start,gpfour0_arm_joint_1,gpfour0_arm_joint_2,gpfour0_arm_joint_3,gpfour0_arm_joint_4,gpfour0_arm_joint_5,gpfour0_arm_joint_6,gpfour0_arm_fts_tool,gpfour1_arm_joint_1,gpfour1_arm_joint_2,gpfour1_arm_joint_3,gpfour1_arm_joint_4,gpfour1_arm_joint_5,gpfour1_arm_joint_6,gpfour1_arm_fts_tool,
0,-0.977384,0.471239,0.20944,-1.62316,-1.41372,0.925025,0,0.802851,0.122173,0.20944,1.58825,-0.20944,2.26893,0
0.194533,-0.977384,0.471239,0.20944,-1.44862,-1.41372,0.925025,0,0.802851,0.122173,0.20944,1.58825,-0.20944,2.0944,0
0.369066,-0.977384,0.471239,0.20944,-1.27409,-1.41372,0.925025,0,0.802851,0.122173,0.20944,1.58825,-0.20944,1.91986,0
0.543599,-0.977384,0.471239,0.20944,-1.09956,-1.41372,0.925025,0,0.802851,0.122173,0.20944,1.58825,-0.20944,1.74533,0
0.758132,-0.977384,0.471239,0.20944,-0.925025,-1.41372,0.925025,0,0.802851,0.122173,0.20944,1.58825,-0.20944,1.5708,0
1.01266,-0.977384,0.471239,0.20944,-0.925025,-1.41372,0.750492,0,0.802851,0.122173,0.20944,1.41372,-0.20944,1.5708,0
1.2672,-0.977384,0.471239,0.20944,-0.750492,-1.41372,0.750492,0,0.802851,0.122173,0.20944,1.41372,-0.20944,1.39626,0
1.52173,-0.977384,0.471239,0.20944,-0.750492,-1.41372,0.575959,0,0.802851,0.122173,0.20944,1.23918,-0.20944,1.39626,0
1.77626,-0.977384,0.471239,0.20944,-0.575959,-1.41372,0.575959,0,0.802851,0.122173,0.20944,1.23918,-0.20944,1.22173,0
2.0308,-0.977384,0.471239,0.20944,-0.575959,-1.41372,0.401426,0,0.802851,0.122173,0.20944,1.06465,-0.20944,1.22173,0
2.28533,-0.977384,0.471239,0.20944,-0.401426,-1.41372,0.401426,0,0.802851,0.122173,0.20944,1.06465,-0.20944,1.0472,0
2.51986,-0.890118,0.471239,0.20944,-0.401426,-1.41372,0.401426,0,0.802851,0.122173,0.20944,1.06465,-0.0349066,1.0472,0
2.7344,-0.802851,0.471239,0.20944,-0.401426,-1.41372,0.401426,0,0.802851,0.122173,0.20944,0.890118,-0.0349066,1.0472,0
2.94893,-0.715585,0.471239,0.20944,-0.401426,-1.41372,0.401426,0,0.802851,0.122173,0.20944,0.890118,-0.0349066,0.872665,0
3.18346,-0.628319,0.471239,0.20944,-0.401426,-1.41372,0.401426,0,0.802851,0.122173,0.20944,0.890118,0.139626,0.872665,0
3.43799,-0.628319,0.471239,0.20944,-0.401426,-1.41372,0.226893,0,0.802851,0.122173,0.20944,0.715585,0.139626,0.872665,0
3.69253,-0.628319,0.471239,0.20944,-0.226893,-1.41372,0.226893,0,0.802851,0.122173,0.20944,0.715585,0.139626,0.698132,0
3.94706,-0.628319,0.471239,0.20944,-0.226893,-1.23918,0.226893,0,0.802851,0.122173,0.20944,0.715585,0.314159,0.698132,0
4.18159,-0.541052,0.471239,0.20944,-0.226893,-1.23918,0.226893,0,0.802851,0.122173,0.20944,0.541052,0.314159,0.698132,0
4.40613,-0.453786,0.471239,0.20944,-0.226893,-1.23918,0.226893,0,0.802851,0.296706,0.20944,0.541052,0.314159,0.698132,0
4.63066,-0.279253,0.471239,0.20944,-0.226893,-1.23918,0.226893,0,0.802851,0.296706,0.20944,0.541052,0.314159,0.523599,0
4.89519,-0.10472,0.471239,0.20944,-0.226893,-1.23918,0.226893,0,0.802851,0.296706,0.20944,0.541052,0.488692,0.523599,0
5.15972,-0.0523599,0.471239,0.0872665,-0.122173,-1.13446,0.122173,0,0.802851,0.296706,0.20944,0.366519,0.488692,0.523599,0
5.42426,0,0.453786,-0.0523599,0,-1.02974,0,0,0.802851,0.471239,0.20944,0.366519,0.488692,0.523599,0
5.68879,0,0.453786,-0.0523599,0,-1.02974,0,0,0.802851,0.471239,0.20944,0.366519,0.488692,0.349066,0
5.90332,0,0.453786,-0.0523599,0,-1.02974,0,0,0.802851,0.471239,0.20944,0.366519,0.663225,0.349066,0
6.11786,0,0.453786,-0.0523599,0,-1.02974,0,0,0.802851,0.471239,0.20944,0.191986,0.663225,0.349066,0
6.33239,0,0.453786,-0.0523599,0,-1.02974,0,0,0.802851,0.645772,0.20944,0.191986,0.663225,0.349066,0
6.54692,0,0.453786,-0.0523599,0,-1.02974,0,0,0.802851,0.645772,0.20944,0.191986,0.663225,0.174533,0
6.76145,0,0.453786,-0.0523599,0,-1.02974,0,0,0.802851,0.645772,0.20944,0.191986,0.837758,0.174533,0
6.88872,0,0.453786,-0.0523599,0,-1.02974,0,0,0.715585,0.645772,0.20944,0.191986,0.837758,0.174533,0
7.10325,0,0.453786,-0.0523599,0,-1.02974,0,0,0.715585,0.645772,0.20944,0.0174533,0.837758,0.174533,0
7.23052,0,0.453786,-0.0523599,0,-1.02974,0,0,0.628319,0.645772,0.20944,0.0174533,0.837758,0.174533,0
7.44505,0,0.453786,-0.0523599,0,-1.02974,0,0,0.628319,0.820305,0.20944,0.0174533,0.837758,0.174533,0
7.65959,0,0.453786,-0.0523599,0,-1.02974,0,0,0.628319,0.820305,0.0349066,0.0174533,0.837758,0.174533,0
7.76685,0,0.453786,-0.0523599,0,-1.02974,0,0,0.541052,0.820305,0.0349066,0.0174533,0.837758,0.174533,0
7.87676,0,0.453786,-0.0523599,0,-1.02974,0,0,0.453786,0.820305,0.0349066,0.0174533,0.837758,0.174533,0
8.0913,0,0.453786,-0.0523599,0,-1.02974,0,0,0.453786,0.820305,0.0349066,0.0174533,0.837758,0,0
8.30583,0,0.453786,-0.0523599,0,-1.02974,0,0,0.453786,0.820305,0.0349066,0.0174533,1.01229,0,0
8.4331,0,0.453786,-0.0523599,0,-1.02974,0,0,0.366519,0.820305,0.0349066,0.0174533,1.01229,0,0
8.64763,0,0.453786,-0.0523599,0,-1.02974,0,0,0.366519,0.820305,0.0349066,-0.15708,1.01229,0,0
8.86216,0,0.453786,-0.0523599,0,-1.02974,0,0,0.366519,0.820305,-0.139626,-0.15708,1.01229,0,0
9.07669,0,0.453786,-0.0523599,0,-1.02974,0,0,0.366519,0.994838,-0.139626,-0.15708,1.01229,0,0
9.31064,0,0.453786,-0.0523599,0,-1.02974,0,0,0.191986,0.994838,-0.139626,-0.15708,1.01229,0,0
9.50536,0,0.453786,-0.0523599,0,-1.02974,0,0,0.10472,1.01229,-0.15708,-0.191986,1.09956,-0.10472,0
