meganmlee/Multi-Agent-Optimal-Control/solutions/random4_right_push_up.csv
time_from_start,gpfour0_arm_joint_1,gpfour0_arm_joint_2,gpfour0_arm_joint_3,gpfour0_arm_joint_4,gpfour0_arm_joint_5,gpfour0_arm_joint_6,gpfour0_arm_fts_tool,gpfour1_arm_joint_1,gpfour1_arm_joint_2,gpfour1_arm_joint_3,gpfour1_arm_joint_4,gpfour1_arm_joint_5,gpfour1_arm_joint_6,gpfour1_arm_fts_tool,
0,0.174533,0.279253,0.0349066,0.767945,-1.20428,-0.890118,0,0.10472,0.0872665,-0.0872665,-1.62316,-1.32645,0,0
0.234533,0.174533,0.279253,0.0349066,0.767945,-1.20428,-0.715585,0,0.10472,0.0872665,-0.0872665,-1.62316,-1.15192,0,0
0.489066,0.174533,0.279253,0.0349066,0.593412,-1.20428,-0.715585,0,0.10472,0.0872665,-0.0872665,-1.44862,-1.15192,0,0
0.743599,0.174533,0.279253,0.0349066,0.593412,-1.20428,-0.541052,0,0.10472,0.0872665,-0.0872665,-1.44862,-0.977384,0,0
0.998132,0.174533,0.10472,0.0349066,0.593412,-1.20428,-0.541052,0,0.10472,0.0872665,-0.0872665,-1.27409,-0.977384,0,0
1.4272,0.174533,0.10472,0.0349066,0.593412,-1.20428,-0.191986,0,0.10472,0.0872665,-0.0872665,-1.27409,-0.802851,0,0
1.68173,0.174533,0.10472,0.0349066,0.418879,-1.20428,-0.191986,0,0.10472,0.0872665,-0.0872665,-1.09956,-0.802851,0,0
1.93626,0.174533,-0.0698132,0.0349066,0.418879,-1.20428,-0.191986,0,0.10472,0.0872665,-0.0872665,-1.09956,-0.628319,0,0
2.1908,0.174533,-0.0698132,0.0349066,0.244346,-1.20428,-0.191986,0,0.10472,0.0872665,-0.0872665,-0.925025,-0.628319,0,0
2.47533,0.174533,-0.244346,0.0349066,0.244346,-1.20428,-0.191986,0,0.10472,0.0872665,-0.0872665,-0.925025,-0.453786,0,0
2.85968,0,-0.401426,0,0,-0.959931,0,0,0.10472,0.0872665,-0.0872665,-0.750492,-0.453786,0,0
3.12421,0,-0.401426,0,0,-0.959931,0,0,0.10472,0.0872665,-0.0872665,-0.750492,-0.279253,0,0
3.33874,0,-0.401426,0,0,-0.959931,0,0,0.10472,0.0872665,-0.0872665,-0.575959,-0.279253,0,0
3.55327,0,-0.401426,0,0,-0.959931,0,0,0.10472,0.0872665,-0.0872665,-0.575959,-0.10472,0,0
3.76781,0,-0.401426,0,0,-0.959931,0,0,0.10472,0.0872665,-0.0872665,-0.401426,-0.10472,0,0
3.98234,0,-0.401426,0,0,-0.959931,0,0,0.10472,0.0872665,-0.0872665,-0.401426,0.0698132,0,0
4.19687,0,-0.401426,0,0,-0.959931,0,0,0.10472,0.0872665,-0.0872665,-0.226893,0.0698132,0,0
4.41141,0,-0.401426,0,0,-0.959931,0,0,0.10472,0.0872665,-0.0872665,-0.226893,0.244346,0,0
4.64594,0,-0.401426,0,0,-0.959931,0,0,0.10472,0.261799,-0.0872665,-0.226893,0.244346,0,0
4.96283,0,-0.401426,0,0,-0.959931,0,0,0,0.436332,0,0,0.418879,0,0
