meganmlee/Multi-Agent-Optimal-Control/solutions/random1_right_forward.csv
time_from_start,gpfour0_arm_joint_1,gpfour0_arm_joint_2,gpfour0_arm_joint_3,gpfour0_arm_joint_4,gpfour0_arm_joint_5,gpfour0_arm_joint_6,gpfour0_arm_fts_tool,gpfour1_arm_joint_1,gpfour1_arm_joint_2,gpfour1_arm_joint_3,gpfour1_arm_joint_4,gpfour1_arm_joint_5,gpfour1_arm_joint_6,gpfour1_arm_fts_tool,
0,-0.20944,0.244346,0,0.418879,0,0,0,-0.0698132,-0.0698132,0.0698132,0.959931,-0.925025,-0.20944,0
0.214533,-0.20944,0.418879,0,0.418879,0,0,0,-0.0698132,-0.0698132,-0.10472,0.959931,-0.925025,-0.20944,0
0.449066,-0.20944,0.593412,0,0.418879,0,0,0,-0.0698132,-0.0698132,-0.10472,0.785398,-0.925025,-0.20944,0
0.703599,-0.20944,0.593412,0.174533,0.418879,0,0,0,-0.0698132,-0.0698132,-0.10472,0.785398,-0.750492,-0.20944,0
0.958132,-0.20944,0.593412,0.174533,0.418879,0.174533,0,0,-0.0698132,-0.0698132,-0.279253,0.785398,-0.750492,-0.20944,0
1.21266,-0.20944,0.767945,0.174533,0.418879,0.174533,0,0,-0.0698132,-0.0698132,-0.279253,0.610865,-0.750492,-0.20944,0
1.4772,-0.20944,0.767945,0.349066,0.418879,0.174533,0,0,-0.0698132,-0.0698132,-0.279253,0.610865,-0.575959,-0.20944,0
1.79154,-0.226893,0.994838,0.575959,0.279253,0.418879,0,0,-0.0698132,-0.0698132,-0.453786,0.610865,-0.575959,-0.20944,0
2.09334,-0.261799,1.22173,0.785398,0.139626,0.680678,0,0,-0.0698132,-0.0698132,-0.453786,0.436332,-0.575959,-0.20944,0
2.41769,-0.279253,1.44862,1.01229,0,0.925025,0,0,-0.0698132,-0.244346,-0.453786,0.436332,-0.575959,-0.20944,0
2.67222,-0.279253,1.44862,1.01229,0,0.925025,0,0,-0.0698132,-0.244346,-0.453786,0.436332,-0.401426,-0.20944,0
2.77949,-0.279253,1.44862,1.01229,0,0.925025,0,0,0.0174533,-0.244346,-0.453786,0.436332,-0.401426,-0.20944,0
2.8694,-0.279253,1.44862,1.01229,0,0.925025,0,0,0.10472,-0.244346,-0.453786,0.436332,-0.401426,-0.20944,0
3.04393,-0.279253,1.44862,1.01229,0,0.925025,0,0,0.279253,-0.244346,-0.453786,0.436332,-0.401426,-0.20944,0
3.23847,-0.279253,1.44862,1.01229,0,0.925025,0,0,0.453786,-0.244346,-0.453786,0.436332,-0.401426,-0.20944,0
3.453,-0.279253,1.44862,1.01229,0,0.925025,0,0,0.453786,-0.244346,-0.628319,0.436332,-0.401426,-0.20944,0
3.66753,-0.279253,1.44862,1.01229,0,0.925025,0,0,0.453786,-0.244346,-0.628319,0.261799,-0.401426,-0.20944,0
3.88206,-0.279253,1.44862,1.01229,0,0.925025,0,0,0.453786,-0.418879,-0.628319,0.261799,-0.401426,-0.20944,0
4.0966,-0.279253,1.44862,1.01229,0,0.925025,0,0,0.453786,-0.418879,-0.628319,0.261799,-0.226893,-0.20944,0
4.31113,-0.279253,1.44862,1.01229,0,0.925025,0,0,0.628319,-0.418879,-0.628319,0.261799,-0.226893,-0.20944,0
4.56566,-0.279253,1.44862,1.01229,0,0.925025,0,0,0.628319,-0.418879,-0.802851,0.261799,-0.226893,-0.20944,0
4.76529,-0.279253,1.44862,1.01229,0,0.925025,0,0,0.733038,-0.541052,-0.855211,0.122173,-0.122173,-0.10472,0
4.95481,-0.279253,1.44862,1.01229,0,0.925025,0,0,0.820305,-0.663225,-0.907571,0,0,0,0
